X:9
T:The Green Tree
R:reel
D:Lake Bras D'Or, Theresa Morrison
B:Gow Collection
Z:Paul Stewart Cranford (P.S.C.), <http://www.cranfordpub.com>
Q:333
L:1/8
M:C|
K:D
e|dDDF EDDf|g2 fb edBc|dDDF EDDg|fdef d2 d:|
||f|afdf abaf|gefd edBf|afdf abaf|edef d2 df|
afdf abaf|g<bfa edef|dDDF EDDg|fdef d2 d:|
